packages/icons/src/card-time.svg

<svg width="24" height="24" viewBox="0 0 24 24" fill="none" xmlns="http://www.w3.org/2000/svg">
<path fill-rule="evenodd" clip-rule="evenodd" d="M17.75 12.25C18.9435 12.25 20.0881 12.7241 20.932 13.568C21.7759 14.4119 22.25 15.5565 22.25 16.75C22.25 17.9435 21.7759 19.0881 20.932 19.932C20.0881 20.7759 18.9435 21.25 17.75 21.25C16.5565 21.25 15.4119 20.7759 14.568 19.932C13.7241 19.0881 13.25 17.9435 13.25 16.75C13.25 15.5565 13.7241 14.4119 14.568 13.568C15.4119 12.7241 16.5565 12.25 17.75 12.25ZM17.75 13.75C16.9544 13.75 16.1913 14.0661 15.6287 14.6287C15.0661 15.1913 14.75 15.9544 14.75 16.75C14.75 17.5456 15.0661 18.3087 15.6287 18.8713C16.1913 19.4339 16.9544 19.75 17.75 19.75C18.5456 19.75 19.3087 19.4339 19.8713 18.8713C20.4339 18.3087 20.75 17.5456 20.75 16.75C20.75 15.9544 20.4339 15.1913 19.8713 14.6287C19.3087 14.0661 18.5456 13.75 17.75 13.75ZM20 3C20.5046 2.99984 20.9906 3.19041 21.3605 3.5335C21.7305 3.87659 21.9572 4.34684 21.995 4.85L22 5V12H20V10H4V17H12V19H4C3.49542 19.0002 3.00943 18.8096 2.63945 18.4665C2.26947 18.1234 2.04284 17.6532 2.005 17.15L2 17V5C1.99984 4.49542 2.19041 4.00943 2.5335 3.63945C2.87659 3.26947 3.34684 3.04284 3.85 3.005L4 3H20ZM18.062 14.875V16.437H19.625V17.375H17.125V14.875H18.062ZM10 12V14H6V12H10ZM20 5H4V8H20V5Z" fill="black"/>
</svg>

<svg xmlns="http://www.w3.org/2000/svg" width="24" height="24" fill="none" viewBox="0 0 24 24">
  <path fill="#000" fill-rule="evenodd" d="M17.75 12.25a4.5 4.5 0 1 1 0 9 4.5 4.5 0 0 1 0-9Zm0 1.5a3 3 0 1 0 0 6 3 3 0 0 0 0-6ZM20 3a2 2 0 0 1 1.995 1.85L22 5v7h-2v-2H4v7h8v2H4a2 2 0 0 1-1.995-1.85L2 17V5a2 2 0 0 1 1.85-1.995L4 3h16Zm-1.938 11.875v1.562h1.563v.938h-2.5v-2.5h.937ZM10 12v2H6v-2h4Zm10-7H4v3h16V5Z" clip-rule="evenodd"/>
</svg>
